X:167
T: WOLAUF GUT GSELL
N: E0752
O: Europa, Mitteleuropa, Deutschland
R: Abschieds - Lied, Wander - Lied
M: 4/4
L: 1/8
K: F
F2 | F2c2A2F2 | G4A2
A2 | d4c2c2 | B2A2G4 | F4z2
F2 | F2c2A2F2 | G4A2
A2 | d4c2c2 | B2A2G4 | F4z2
F2 | A2A2F2F2 | G4F2
c2 | G4c2B2 | B2A2G4 | z2
c2c2c2 | c2c4B2 | A2GFG4 | F2
F2F2F2 | B2A2G4 | F6

